packages/axiom-materials/src/icon_svgs/at.svg

<svg xmlns="http://www.w3.org/2000/svg" width="16" height="16" viewBox="0 0 16 16">
  <path fill-rule="evenodd" d="M7.9883,6 C6.8913,6 6.0003,6.893 6.0003,7.989 C6.0003,8.956 6.7473,10 7.9553,10 C8.9893,10 9.2023,9.775 9.2543,9.361 C9.3053,8.947 9.4673,7.276 9.5603,6.435 C9.2043,6.239 8.6343,6 7.9883,6 M8.0003,15 C4.1403,15 1.0003,11.859 1.0003,8 C1.0003,4.141 4.1403,1 8.0003,1 C11.8593,1 15.0003,3.915 15.0003,7.499 C15.0003,9.381 14.2703,10.852 12.9993,11.534 C12.0663,12.034 10.9973,12.018 10.2093,11.495 C10.1093,11.429 10.0163,11.356 9.9303,11.278 C9.4873,11.563 8.8593,11.75 7.9553,11.75 C5.9123,11.75 4.2503,10.062 4.2503,7.989 C4.2503,5.928 5.9263,4.25 7.9883,4.25 C9.7053,4.25 10.9953,5.275 11.0503,5.319 L11.4323,5.628 C11.4323,5.628 11.0723,8.902 11.0003,9.498 C10.9273,10.094 11.7663,10.211 12.1713,9.992 C12.8563,9.624 13.2503,8.716 13.2503,7.499 C13.2503,4.881 10.8943,2.75 8.0003,2.75 C5.1053,2.75 2.7503,5.105 2.7503,8 C2.7503,10.895 5.1053,13.25 8.0003,13.25 C9.0283,13.25 9.9663,12.958 10.7873,12.383 L11.7913,13.816 C10.6713,14.602 9.3943,15 8.0003,15"/>
</svg>

<svg height="16" viewBox="0 0 16 16" width="16" xmlns="http://www.w3.org/2000/svg"><path d="m7.9883 6c-1.097 0-1.988.893-1.988 1.989 0 .967.747 2.011 1.955 2.011 1.034 0 1.247-.225 1.299-.639.051-.414.213-2.085.306-2.926-.356-.196-.926-.435-1.572-.435m.012 9c-3.86 0-7-3.141-7-7s3.14-7 7-7c3.859 0 7 2.915 7 6.499 0 1.882-.73 3.353-2.001 4.035-.933.5-2.002.484-2.79-.039-.1-.066-.193-.139-.279-.217-.443.285-1.071.472-1.975.472-2.043 0-3.705-1.688-3.705-3.761 0-2.061 1.676-3.739 3.738-3.739 1.717 0 3.007 1.025 3.062 1.069l.382.309s-.36 3.274-.432 3.87c-.073.596.766.713 1.171.494.685-.368 1.079-1.276 1.079-2.493 0-2.618-2.356-4.749-5.25-4.749-2.895 0-5.25 2.355-5.25 5.25s2.355 5.25 5.25 5.25c1.028 0 1.966-.292 2.787-.867l1.004 1.433c-1.12.786-2.397 1.184-3.791 1.184" fill-rule="evenodd"/></svg>
